!!!!SEGMENT: pl-wtm--r-229-m_moniuszko-stanislaw--marzenie.krn
!!!cenid: 18xx:1635
!!!COM: Moniuszko, Stanisław
!!!COM-rismID: pe30008351
!!!CDT: 1819/05/05-1872/06/04
!!!CNT: Polish
!!!OTL: Marzenie
!!!PDT:
!!!AGN: Secular
!!!SMS-siglum: PL-Wtm
!!!SMS-shelfmark: R 229/M
!!!SMS-shelfwork: W
!!!SMS-variant:
!!!SMS-altvar:
!!!NIFC-rismSourceID: 1001063761
!!!NIFC-islandoraID:
!!!URL-pdf-islandora:
!!!URL-scan:
!!!ONB-nifc:
!!!AIN: 1 empty 1 vox
!!!key:
**kern	**fing	**kern	**dynam	**kern	**text	**text
*part2	*part2	*part2	*part2	*part1	*part1	*part1
*staff3	*staff3	*staff2	*	*staff1	*staff1	*staff1
*Iempty	*	*Iforte	*	*Ivox	*	*
*I"	*	*I"[Fortepian]	*	*I"[Głos]	*	*
*	*	*I'pf	*	*I'V	*	*
*clefF4	*	*clefG2	*	*clefG2	*	*
*k[]	*	*k[]	*	*k[]	*	*
*a:	*	*a:	*	*a:	*	*
*M12/8	*	*M12/8	*	*M12/8	*	*
=1	=1	=1	=1	=1	=1	=1
!!LO:TX:t=P:problem:all\right:global
*^	*	*	*	*	*	*
!	!	!	!LO:TX:a:i:t=Allegretto.	!	!	!	!
!	!	!	!	!LO:DY:t=pp.	!	!	!
2.A/	4AA\	.	(<16c/LL	pp	1.ryy	.	.
.	.	.	16d#X/	.	.	.	.
.	.	.	16e/	.	.	.	.
.	.	.	16a/	.	.	.	.
.	8BB\	4	16g/	.	.	.	.
.	.	.	16f/JJ	.	.	.	.
.	4C\	5	16e/LL	.	.	.	.
.	.	.	16g#X/	.	.	.	.
!	!	!	!LO:TX:a:i:u:t=4. Marzenie.	!	!	!	!
.	.	.	16a/	.	.	.	.
.	.	.	16cc/	.	.	.	.
.	8D\	4	16b/	.	.	.	.
.	.	.	16a/JJ	.	.	.	.
4c/	4E\	.	16g#/LL	.	.	.	.
.	.	.	16b/	.	.	.	.
.	.	.	16cc/	.	.	.	.
.	.	.	16ee/	.	.	.	.
8A/	8F#X\	.	16dd/	.	.	.	.
.	.	.	16cc/JJ	.	.	.	.
4.B/	4G\	.	16b\LL	.	.	.	.
.	.	.	16cc#X\	.	.	.	.
.	.	.	16dd\)	.	.	.	.
.	.	.	16ff\	.	.	.	.
.	8G#X\	.	16ee\	.	.	.	.
.	.	.	16dd\JJ	.	.	.	.
*v	*v	*	*	*	*	*	*
=2!|:	=2!|:	=2!|:	=2!|:	=2!|:	=2!|:	=2!|:
*2\right	*	*	*	*	*	*
[2.A\	.	(16cc\LL	.	1.ryy	.	.
.	.	16ee\	.	.	.	.
.	.	16aa\	.	.	.	.
.	.	16ff\	.	.	.	.
.	.	16ee\	.	.	.	.
.	.	16cc\JJ	.	.	.	.
.	.	16a\LL	.	.	.	.
.	.	16cc\	.	.	.	.
!	!	!LO:TX:a:i:u:t=St. Witwickiego.	!	!	!	!
.	.	16ff\	.	.	.	.
.	.	16dd\	.	.	.	.
.	.	16cc\	.	.	.	.
.	.	16a\JJ	.	.	.	.
8A\]	.	16f/LL	.	.	.	.
.	.	16a/	.	.	.	.
8r	.	16dd/	.	.	.	.
.	.	16b/	.	.	.	.
8r	.	16a/	.	.	.	.
.	.	16f/JJ	.	.	.	.
4r	.	16d/LL	.	.	.	.
.	.	16f/	.	.	.	.
.	.	16b/	.	.	.	.
.	.	16a/	.	.	.	.
8r	.	16f/	.	.	.	.
.	.	16d/JJ	.	.	.	.
!!LO:LB:g=original
=3	=3	=3	=3	=3	=3	=3
*^	*	*	*	*	*	*
!LO:N:vis=2.	!	!	!	!	!	!	!
!	!	!	!LO:TX:b:i:t=semper ligatissimo e senza espressione.	!	!	!	!
(4AA/	2.AA\	.	16c/LL)	.	4cc\	1._Skąd	2._Mo-
.	.	.	16e/	.	.	.	.
.	.	.	16f#X/	.	.	.	.
.	.	.	16g#X/	.	.	.	.
8E/	.	.	16a/	.	8a/	to	-że
.	.	.	16b/JJ	.	.	.	.
4c\	.	.	16cc/LL	.	8a/	pły-	w_ob-
.	.	.	16dd/	.	.	.	.
.	.	.	16ee/	.	8g#X/	-niesz	-cej
.	.	.	16cc/	.	.	.	.
8E/)	.	.	16a/	.	8a/	stru-	kra-
.	.	.	16e/JJ	.	.	.	.
!LO:N:vis=2.	!	!	!	!	!	!	!
(4AA/	2.AA\	.	16c/LL	.	4.cc\	-mie-	-i-
.	.	.	16e/	.	.	.	.
.	.	.	16f#/	.	.	.	.
.	.	.	16g#/	.	.	.	.
8E/	.	.	16a/	.	.	.	.
.	.	.	16b/JJ	.	.	.	.
4c\	.	.	16cc/LL	.	8a\	-niu	-nie
.	.	.	16dd/	.	.	.	.
.	.	.	16ee/	.	8r	.	.
.	.	.	16cc/	.	.	.	.
8E/)	.	.	16a/	.	8a\	że	nad
.	.	.	16e/JJ	.	.	.	.
=4	=4	=4	=4	=4	=4	=4	=4
*	*	*	*	*	*^	*	*
!LO:N:vis=2.	!	!	!	!	!	!	!	!
(4AA/	2.AA\	.	16d/LL	.	4dd\	4.ryy	mru-	to-
.	.	.	16f/	.	.	.	.	.
.	.	.	16g#X/	.	.	.	.	.
.	.	.	16a/	.	.	.	.	.
8F/	.	.	16b/	.	8cc\	.	-czysz	-bą
.	.	.	16cc/JJ	.	.	.	.	.
4d/	.	.	16dd/LL	.	8b/	8b\L	tak	stał
.	.	.	16ee/	.	.	.	.	.
.	.	.	16gg/	.	8cc/	8cc\J	.	.
.	.	.	16ff/	.	.	.	.	.
8F/)	.	.	16ee/	.	8dd/	8dd\	ża-	mój
.	.	.	16dd/JJ	.	.	.	.	.
!LO:N:vis=2.	!	!	!	!	!	!	!	!
(4AA/	2.AA\	.	16dd#X\LL	.	4.ee\	4ryy	-łoś-	lu-
.	.	.	16ee\	.	.	.	.	.
.	.	.	16aa\	.	.	.	.	.
.	.	.	16ee\	.	.	.	.	.
8E/	.	.	16ddn\	.	.	2ryy	.	.
.	.	.	16cc\JJ	.	.	.	.	.
4c\	.	.	16b\LL	.	4a/	.	-nie	-by
.	.	.	16cc\	.	.	.	.	.
.	.	.	16ee\	.	.	.	.	.
.	.	.	16cc\	.	.	.	.	.
8E/)	.	.	16a\	.	8r	.	.	.
.	.	.	16e\JJ	.	.	.	.	.
*	*	*	*	*	*v	*v	*	*
=5	=5	=5	=5	=5	=5	=5	=5
!LO:N:vis=2.	!	!	!	!	!	!	!
(4AA/	2.AA\	.	16c/LL	.	4cc\	czy	i
.	.	.	16e/	.	.	.	.
.	.	.	16f#X/	.	.	.	.
.	.	.	16g#X/	.	.	.	.
8E/	.	.	16a/	.	8a/	nie	przy
.	.	.	16b/JJ	.	.	.	.
4c\	.	.	16cc/LL	.	8a/	mi-	mil-
.	.	.	16dd/	.	.	.	.
.	.	.	16ee/	.	8e/	-ło	-szej
.	.	.	16cc/	.	.	.	.
8E/)	.	.	16a/	.	8a/	ci	dziew-
.	.	.	16e/JJ	.	.	.	.
!LO:N:vis=2.	!	!	!	!	!	!	!
(4AA/	2.AA\	.	16c/LL	.	4.cc\	w_cie-	-czy-
.	.	.	16e/	.	.	.	.
.	.	.	16f#/	.	.	.	.
.	.	.	16g#/	.	.	.	.
8E/	.	.	16a/	.	.	.	.
.	.	.	16b/JJ	.	.	.	.
4c\	.	.	16cc/LL	.	4a\	-niu	-nie
.	.	.	16dd/	.	.	.	.
.	.	.	16ee/	.	.	.	.
.	.	.	16cc/	.	.	.	.
8E/)	.	.	16a/	.	8r	.	.
.	.	.	16e/JJ	.	.	.	.
!!LO:LB:g=original
=6	=6	=6	=6	=6	=6	=6	=6
*	*	*	*^	*	*	*	*
(4EE/	4.ryy	.	16d/LL	2.ryy	.	4ee\	gdzie	zdrad-
.	.	.	16e/	.	.	.	.	.
.	.	.	16g#X/	.	.	.	.	.
.	.	.	16b/	.	.	.	.	.
8E\	.	.	16dd/	.	.	8b\	ten	-nie
.	.	.	16ff/JJ	.	.	.	.	.
4d/	4.G#X\	.	16ee/LL	.	.	8dd\	pię-	śmiał
.	.	.	16dd/	.	.	.	.	.
.	.	.	16cc/	.	.	8cc\	-kny	się
.	.	.	16b/	.	.	.	.	.
8E/)	.	.	16a/	.	.	8b\	gaj	z_mej
.	.	.	16g#X/JJ	.	.	.	.	.
(4c/	2.F\ 2.A	.	16a/LL	4.a\	.	[4.a\	roś-	zgu-
.	.	.	16aa/	.	.	.	.	.
.	.	.	16gg/	.	.	.	.	.
.	.	.	16ff/	.	.	.	.	.
8c#X/	.	.	16ee/	.	.	.	.	.
.	.	.	16dd#X/JJ	.	.	.	.	.
4d/	.	.	16ddn/LL	8ryy	.	4a\]	.	.
.	.	.	16cc#X/	.	.	.	.	.
.	.	.	16ccn/	4ryy	.	.	.	.
.	.	.	16b/	.	.	.	.	.
8d#X/)	.	.	16b-X/	.	.	8cc\	-nie,	-by,
.	.	.	16a/JJ	.	.	.	.	.
*	*	*	*v	*v	*	*	*	*
=7	=7	=7	=7	=7	=7	=7	=7
!LO:N:vis=2.	!	!	!	!	!	!	!
(4E/	2.E\	.	16g#X/LL	.	4ee\	czy	smiał
.	.	.	16b/	.	.	.	.
.	.	.	16ee/	.	.	.	.
.	.	.	16dd#X/	.	.	.	.
8B/	.	.	16b/	.	8dd#X\	nie	się
.	.	.	16a/JJ	.	.	.	.
4e\	.	.	16g#/LL	.	4ee\	mi-	z_mo-
.	.	.	16b/	.	.	.	.
.	.	.	16ee/	.	.	.	.
.	.	.	16dd#/	.	.	.	.
[<8B/)	.	.	16b/	.	8dd#\	-ło	-jej
.	.	.	16a/JJ	.	.	.	.
(4B/]	4E\	.	16g#/LL	.	[4.ee\	w_cie-	zgu-
.	.	.	16b/	.	.	.	.
.	.	.	16ee/	.	.	.	.
.	.	.	16cc#X/	.	.	.	.
[8A/	8A\	.	16a/	.	.	.	.
.	.	.	16gn/JJ	.	.	.	.
4A/]	4D\	.	16f#X/LL	.	4ee\]	.	.
.	.	.	16a/	.	.	.	.
.	.	.	16dd#/	.	.	.	.
.	.	.	16b/	.	.	.	.
8G/)	8G\	.	16g/	.	8ddn\	-niu	-by,
.	.	.	16fn/JJ	.	.	.	.
=8	=8	=8	=8	=8	=8	=8	=8
!LO:N:vis=2.	!	!	!	!	!	!	!
(4C/	2.C\	.	16e/LL	.	4cc\	gdzie	smiał
.	.	.	16g/	.	.	.	.
.	.	.	16cc/	.	.	.	.
.	.	.	16b/	.	.	.	.
.	.	.	.	.	8qee/	.	.
8G/	.	.	16g/	.	8dd\	gaj	się
.	.	.	16f/JJ	.	.	.	.
4c/	.	.	16e/LL	.	4cc\	pię-	z_mo-
.	.	.	16g/	.	.	.	.
.	.	.	16cc/	.	.	.	.
.	.	.	16b/	.	.	.	.
[<8G/)	.	.	16g/	.	8g/	-kny	-jej
.	.	.	16f/JJ	.	.	.	.
(4G/]	4C\	.	16e/LL	.	([4.cc\	roś-	zgu-
.	.	.	16g/	.	.	.	.
.	.	.	16cc/	.	.	.	.
.	.	.	16b/	.	.	.	.
8ryy	8D\	.	16f/	.	.	.	.
.	.	.	16d/JJ	.	.	.	.
4E/	4.E\	.	16c/LL	.	4cc\]	.	.
.	.	.	16e/	.	.	.	.
.	.	.	16a/	.	.	.	.
.	.	.	16g#X/	.	.	.	.
8EE/)	.	.	16e/	.	8b\)	.	.
.	.	.	16d/JJ	.	.	.	.
!!LO:LB:g=original
=9	=9	=9	=9	=9	=9	=9	=9
(2.A/	4AA\	.	16c/LL	.	4a/	-nie.	-by.
.	.	.	16d#X/	.	.	.	.
.	.	.	16e/	.	.	.	.
.	.	.	16a/	.	.	.	.
.	8BB\	.	16g/	.	4r	.	.
.	.	.	16f/JJ	.	.	.	.
.	4C\	.	16e/LL	.	.	.	.
.	.	.	16g#X/	.	.	.	.
.	.	.	16a/	.	8r	.	.
.	.	.	16cc/	.	.	.	.
.	8D\	.	16b/	.	2.r	.	.
.	.	.	16a/JJ	.	.	.	.
4c/	4E\	.	16gn/LL	.	.	.	.
.	.	.	16b/	.	.	.	.
.	.	.	16cc/	.	.	.	.
.	.	.	16ee/	.	.	.	.
8A/	8F#X\	.	16dd/	.	.	.	.
.	.	.	16cc/JJ	.	.	.	.
4.B/	4G\	.	16b/LL	.	.	.	.
.	.	.	16cc#X/	.	.	.	.
.	.	.	16dd/	.	.	.	.
.	.	.	16ff/	.	.	.	.
.	8G#X\	.	16ee/	.	8ryy	.	.
.	.	.	16dd/JJ	.	.	.	.
=10:|!	=10:|!	=10:|!	=10:|!	=10:|!	=10:|!	=10:|!	=10:|!
!	!	!	!	!	!LO:N:vis=1.	!	!
(2.e/)	(<1.A	.	(16cc\LL	.	1.r	.	.
.	.	.	16ee\	.	.	.	.
.	.	.	16aa\	.	.	.	.
.	.	.	16ff\	.	.	.	.
.	.	.	16ee\	.	.	.	.
.	.	.	16cc\JJ	.	.	.	.
.	.	.	16a/LL	.	.	.	.
.	.	.	16cc/	.	.	.	.
.	.	.	16ff/	.	.	.	.
.	.	.	16ee/	.	.	.	.
.	.	.	16cc/	.	.	.	.
.	.	.	16a/JJ	.	.	.	.
4.c/	.	.	16e/LL	.	.	.	.
.	.	.	16a/	.	.	.	.
.	.	.	16dd/	.	.	.	.
.	.	.	16cc/	.	.	.	.
.	.	.	16a/	.	.	.	.
.	.	.	16e/JJ	.	.	.	.
4.A/	.	.	16c/LL	.	.	.	.
.	.	.	16e/	.	.	.	.
.	.	.	16b/	.	.	.	.
.	.	.	16a/	.	.	.	.
.	.	.	16e/	.	.	.	.
.	.	.	16c/JJ	.	.	.	.
*v	*v	*	*	*	*	*	*
=11	=11	=11	=11	=11	=11	=11
!	!	!	!	!LO:N:vis=1.	!	!
8AA/)	.	8A/)	.	1.r	.	.
8r	.	8r	.	.	.	.
4r	.	4r	.	.	.	.
8r	.	8r	.	.	.	.
2.r	.	2.r	.	.	.	.
8ryy	.	8ryy	.	.	.	.
!!LO:PB:g=original
==	==	==	==	==	==	==
*-	*-	*-	*-	*-	*-	*-
!!!system-decoration: s1{(s2,s3)}
!!!RDF**kern: < = below
!!!RDF**kern: > = above
!!!ENC: Marta Chmielewska
!!!END: 2021-04-14
!!!ENC: Kamil Watkowski
!!!END: 2021-03-29
